X:253
T:Mulqueen's
Z: id:dc-reel-233
M:C
L:1/8
K:D Major
AG|F2EG FDDE|FDAG FDDE|F2EG FDDE|FABc d2:|!
cd|e3^d efe=d|cdef g2fg|e3^d efe=d|cABc d2cd|!
e3^d efe=d|cdef g2fg|aff2 gece|dfec d2|]!

